icons/buddhism-11.svg

<svg xmlns="http://www.w3.org/2000/svg" width="11.0016" height="11.0016" viewBox="0 0 11.0016 11.0016">
  <title>buddhism-11</title>
  <path d="M11.0016,5.8008v-0.5H9.9895A4.4736,4.4736,0,0,0,8.8513,2.5544l0.8271-.8271L9.3244,1.3732,8.5012,2.2a4.4747,4.4747,0,0,0-2.75-1.1382V0h-0.5V1.0622a4.4717,4.4717,0,0,0-2.7,1.1L1.6752,1.2762,1.32,1.6282,2.19,2.5a4.4777,4.4777,0,0,0-1.1782,2.8H0v0.5H1.0121A4.4747,4.4747,0,0,0,2.15,8.5472l-0.8271.8271L1.6772,9.7284,2.5,8.9013a4.4747,4.4747,0,0,0,2.75,1.1382v0.9621h0.5V10.0395a4.4756,4.4756,0,0,0,2.75-1.1432l0.82,0.8311,0.3551-.3521L8.8553,8.5412a4.4737,4.4737,0,0,0,1.1342-2.74h1.0121Zm-1.4392-.5H6.1009L8.5492,2.8564A4.05,4.05,0,0,1,9.5624,5.3008ZM8.1952,2.5L5.7508,4.9467V1.4892A4.0486,4.0486,0,0,1,8.1952,2.5ZM5.2508,1.4892v3.4L2.85,2.4614A4.0456,4.0456,0,0,1,5.2508,1.4892Zm-2.7594,1.32,2.46,2.4914H1.4392A4.0536,4.0536,0,0,1,2.4914,2.8094ZM1.4392,5.8008H4.9007L2.4524,8.2452A4.05,4.05,0,0,1,1.4392,5.8008Zm1.3672,2.8L5.2508,6.1539V9.6114A4.05,4.05,0,0,1,2.8064,8.6013Zm2.9444,1.01V6.1109l2.45,2.4814A4.05,4.05,0,0,1,5.7508,9.6114Zm2.8-1.3742L6.1479,5.8008H9.5624A4.0486,4.0486,0,0,1,8.5552,8.2372H8.5512Z"/>
</svg>

<svg xmlns="http://www.w3.org/2000/svg" width="11" height="11" viewBox="0 0 11 11">
  <title>buddhism</title>
  <path d="M11,5.8V5.3H9.988A4.473,4.473,0,0,0,8.85,2.554l.827-.827-.354-.354L8.5,2.2A4.474,4.474,0,0,0,5.75,1.062V0h-.5V1.062a4.471,4.471,0,0,0-2.7,1.1l-.875-.886-.355.352L2.19,2.5A4.477,4.477,0,0,0,1.012,5.3H0v.5H1.012A4.474,4.474,0,0,0,2.15,8.546l-.827.827.354.354L2.5,8.9A4.474,4.474,0,0,0,5.25,10.038V11h.5v-.962A4.475,4.475,0,0,0,8.5,8.895l.82.831.355-.352L8.854,8.54A4.473,4.473,0,0,0,9.988,5.8ZM9.561,5.3H6.1L8.548,2.856A4.049,4.049,0,0,1,9.561,5.3ZM8.194,2.5,5.75,4.946V1.489A4.048,4.048,0,0,1,8.194,2.5ZM5.25,1.489v3.4l-2.4-2.428A4.045,4.045,0,0,1,5.25,1.489ZM2.491,2.809,4.951,5.3H1.439A4.053,4.053,0,0,1,2.491,2.809ZM1.439,5.8H4.9L2.452,8.244A4.049,4.049,0,0,1,1.439,5.8ZM2.806,8.6,5.25,6.153V9.61A4.049,4.049,0,0,1,2.806,8.6ZM5.75,9.61v-3.5L8.2,8.591A4.049,4.049,0,0,1,5.75,9.61Zm2.8-1.374L6.147,5.8H9.561A4.048,4.048,0,0,1,8.554,8.236Z"/>
</svg>
